images/3246102.svg

<?xml version="1.0" encoding="UTF-8"?>
<svg xmlns="http://www.w3.org/2000/svg" xmlns:xlink="http://www.w3.org/1999/xlink" width="300pt" height="300pt" viewBox="0 0 300 300" version="1.1">
<defs>
<g>
<symbol overflow="visible" id="glyph0-0">
<path style="stroke:none;" d="M 0.640625 2.296875 L 0.640625 -9.171875 L 7.140625 -9.171875 L 7.140625 2.296875 Z M 1.375 1.578125 L 6.421875 1.578125 L 6.421875 -8.4375 L 1.375 -8.4375 Z M 1.375 1.578125 "/>
</symbol>
<symbol overflow="visible" id="glyph0-1">
<path style="stroke:none;" d="M 5.125 -8.609375 C 4.1875 -8.609375 3.441406 -8.257812 2.890625 -7.5625 C 2.347656 -6.875 2.078125 -5.929688 2.078125 -4.734375 C 2.078125 -3.535156 2.347656 -2.585938 2.890625 -1.890625 C 3.441406 -1.203125 4.1875 -0.859375 5.125 -0.859375 C 6.050781 -0.859375 6.785156 -1.203125 7.328125 -1.890625 C 7.878906 -2.585938 8.15625 -3.535156 8.15625 -4.734375 C 8.15625 -5.929688 7.878906 -6.875 7.328125 -7.5625 C 6.785156 -8.257812 6.050781 -8.609375 5.125 -8.609375 Z M 5.125 -9.65625 C 6.445312 -9.65625 7.503906 -9.207031 8.296875 -8.3125 C 9.097656 -7.414062 9.5 -6.222656 9.5 -4.734375 C 9.5 -3.234375 9.097656 -2.035156 8.296875 -1.140625 C 7.503906 -0.253906 6.445312 0.1875 5.125 0.1875 C 3.789062 0.1875 2.722656 -0.253906 1.921875 -1.140625 C 1.128906 -2.035156 0.734375 -3.234375 0.734375 -4.734375 C 0.734375 -6.222656 1.128906 -7.414062 1.921875 -8.3125 C 2.722656 -9.207031 3.789062 -9.65625 5.125 -9.65625 Z M 5.125 -9.65625 "/>
</symbol>
<symbol overflow="visible" id="glyph0-2">
<path style="stroke:none;" d="M 1.28125 -9.484375 L 2.5625 -9.484375 L 2.5625 -5.59375 L 7.21875 -5.59375 L 7.21875 -9.484375 L 8.5 -9.484375 L 8.5 0 L 7.21875 0 L 7.21875 -4.515625 L 2.5625 -4.515625 L 2.5625 0 L 1.28125 0 Z M 1.28125 -9.484375 "/>
</symbol>
</g>
</defs>
<g id="surface40745">
<rect x="0" y="0" width="300" height="300" style="fill:rgb(100%,100%,100%);fill-opacity:1;stroke:none;"/>
<path style="fill:none;stroke-width:1;stroke-linecap:butt;stroke-linejoin:miter;stroke:rgb(0%,0%,0%);stroke-opacity:1;stroke-miterlimit:10;" d="M 90.441406 190.914062 L 90.441406 190.914062 M 92.820312 192.738281 L 93.304688 191.816406 M 95.203125 194.566406 L 96.164062 192.714844 M 97.582031 196.390625 L 99.027344 193.617188 M 99.960938 198.21875 L 101.886719 194.519531 M 102.34375 200.042969 L 104.75 195.417969 M 104.722656 201.871094 L 107.609375 196.320312 M 107.101562 203.695312 L 110.472656 197.222656 M 109.480469 205.523438 L 113.332031 198.125 M 111.863281 207.351562 L 116.195312 199.023438 M 114.242188 209.175781 L 119.054688 199.925781 M 116.621094 211.003906 L 121.917969 200.828125 M 118.304688 212.292969 L 123.9375 201.464844 "/>
<path style="fill:none;stroke-width:1.2;stroke-linecap:butt;stroke-linejoin:miter;stroke:rgb(0%,0%,0%);stroke-opacity:1;stroke-miterlimit:10;" d="M 90.441406 190.914062 L 59.492188 206.351562 "/>
<path style="fill:none;stroke-width:1.2;stroke-linecap:butt;stroke-linejoin:miter;stroke:rgb(0%,0%,0%);stroke-opacity:1;stroke-miterlimit:10;" d="M 85.324219 156.710938 L 90.441406 190.914062 "/>
<path style="fill:none;stroke-width:1.2;stroke-linecap:butt;stroke-linejoin:miter;stroke:rgb(0%,0%,0%);stroke-opacity:1;stroke-miterlimit:10;" d="M 106.40625 160.234375 L 90.441406 190.914062 "/>
<path style="fill:none;stroke-width:1.2;stroke-linecap:butt;stroke-linejoin:miter;stroke:rgb(0%,0%,0%);stroke-opacity:1;stroke-miterlimit:10;" d="M 59.492188 206.351562 L 35.25 181.6875 "/>
<path style=" stroke:none;fill-rule:nonzero;fill:rgb(0%,0%,0%);fill-opacity:1;" d="M 51.214844 151.007812 L 29.835938 178.871094 L 40.664062 184.503906 Z M 51.214844 151.007812 "/>
<path style="fill:none;stroke-width:1.2;stroke-linecap:butt;stroke-linejoin:miter;stroke:rgb(0%,0%,0%);stroke-opacity:1;stroke-miterlimit:10;" d="M 51.214844 151.007812 L 85.324219 156.710938 "/>
<path style="fill:none;stroke-width:1.2;stroke-linecap:butt;stroke-linejoin:miter;stroke:rgb(0%,0%,0%);stroke-opacity:1;stroke-miterlimit:10;" d="M 51.214844 151.007812 L 82.160156 135.574219 "/>
<path style="fill:none;stroke-width:1.2;stroke-linecap:butt;stroke-linejoin:miter;stroke:rgb(0%,0%,0%);stroke-opacity:1;stroke-miterlimit:10;" d="M 82.160156 135.574219 L 106.40625 160.234375 "/>
<path style="fill:none;stroke-width:1.2;stroke-linecap:butt;stroke-linejoin:miter;stroke:rgb(0%,0%,0%);stroke-opacity:1;stroke-miterlimit:10;" d="M 82.160156 135.574219 L 109.222656 114.039062 "/>
<path style="fill:none;stroke-width:1.2;stroke-linecap:butt;stroke-linejoin:miter;stroke:rgb(0%,0%,0%);stroke-opacity:1;stroke-miterlimit:10;" d="M 82.160156 135.574219 L 63.574219 106.40625 "/>
<path style="fill:none;stroke-width:1;stroke-linecap:butt;stroke-linejoin:miter;stroke:rgb(0%,0%,0%);stroke-opacity:1;stroke-miterlimit:10;" d="M 106.40625 160.234375 L 106.40625 160.234375 M 109.402344 160.3125 L 109.25 159.28125 M 112.402344 160.390625 L 112.09375 158.328125 M 115.402344 160.46875 L 114.9375 157.375 M 118.402344 160.546875 L 117.785156 156.425781 M 121.398438 160.628906 L 120.628906 155.472656 M 124.398438 160.707031 L 123.472656 154.519531 M 127.398438 160.785156 L 126.316406 153.566406 M 130.398438 160.863281 L 129.164062 152.613281 M 133.394531 160.941406 L 132.007812 151.660156 M 136.394531 161.019531 L 134.851562 150.707031 M 139.394531 161.097656 L 137.695312 149.753906 M 141.511719 161.152344 L 139.703125 149.082031 "/>
<path style="fill:none;stroke-width:1.2;stroke-linecap:butt;stroke-linejoin:miter;stroke:rgb(100%,0%,0%);stroke-opacity:1;stroke-miterlimit:10;" d="M 140.609375 155.117188 L 151.375 168.648438 "/>
<path style="fill:none;stroke-width:1.2;stroke-linecap:butt;stroke-linejoin:miter;stroke:rgb(0%,0%,0%);stroke-opacity:1;stroke-miterlimit:10;" d="M 151.375 168.648438 L 162.140625 182.179688 "/>
<path style=" stroke:none;fill-rule:nonzero;fill:rgb(100%,100%,100%);fill-opacity:1;" d="M 135.609375 147.117188 L 146.609375 147.117188 L 146.609375 163.117188 L 135.609375 163.117188 Z M 135.609375 147.117188 "/>
<g style="fill:rgb(100%,0%,0%);fill-opacity:1;">
  <use xlink:href="#glyph0-1" x="135.609375" y="159.493164"/>
</g>
<path style="fill:none;stroke-width:1.2;stroke-linecap:butt;stroke-linejoin:miter;stroke:rgb(0%,0%,0%);stroke-opacity:1;stroke-miterlimit:10;" d="M 158.355469 180.6875 L 152.019531 196.777344 "/>
<path style="fill:none;stroke-width:1.2;stroke-linecap:butt;stroke-linejoin:miter;stroke:rgb(100%,0%,0%);stroke-opacity:1;stroke-miterlimit:10;" d="M 152.019531 196.777344 L 145.6875 212.867188 "/>
<path style="fill:none;stroke-width:1.2;stroke-linecap:butt;stroke-linejoin:miter;stroke:rgb(0%,0%,0%);stroke-opacity:1;stroke-miterlimit:10;" d="M 165.925781 183.667969 L 159.59375 199.757812 "/>
<path style="fill:none;stroke-width:1.2;stroke-linecap:butt;stroke-linejoin:miter;stroke:rgb(100%,0%,0%);stroke-opacity:1;stroke-miterlimit:10;" d="M 159.59375 199.757812 L 153.257812 215.847656 "/>
<path style="fill:none;stroke-width:1.2;stroke-linecap:butt;stroke-linejoin:miter;stroke:rgb(0%,0%,0%);stroke-opacity:1;stroke-miterlimit:10;" d="M 162.140625 182.179688 L 196.34375 177.0625 "/>
<path style=" stroke:none;fill-rule:nonzero;fill:rgb(100%,100%,100%);fill-opacity:1;" d="M 138.472656 206.359375 L 149.472656 206.359375 L 149.472656 222.359375 L 138.472656 222.359375 Z M 138.472656 206.359375 "/>
<g style="fill:rgb(100%,0%,0%);fill-opacity:1;">
  <use xlink:href="#glyph0-1" x="138.472656" y="218.735352"/>
</g>
<path style="fill:none;stroke-width:1.2;stroke-linecap:butt;stroke-linejoin:miter;stroke:rgb(0%,0%,0%);stroke-opacity:1;stroke-miterlimit:10;" d="M 196.34375 177.0625 L 217.878906 204.125 "/>
<path style="fill:none;stroke-width:1.2;stroke-linecap:butt;stroke-linejoin:miter;stroke:rgb(0%,0%,0%);stroke-opacity:1;stroke-miterlimit:10;" d="M 204.863281 174.703125 L 222.089844 196.351562 "/>
<path style="fill:none;stroke-width:1.2;stroke-linecap:butt;stroke-linejoin:miter;stroke:rgb(0%,0%,0%);stroke-opacity:1;stroke-miterlimit:10;" d="M 209.015625 144.882812 L 196.34375 177.0625 "/>
<path style="fill:none;stroke-width:1.2;stroke-linecap:butt;stroke-linejoin:miter;stroke:rgb(0%,0%,0%);stroke-opacity:1;stroke-miterlimit:10;" d="M 217.878906 204.125 L 252.082031 199.007812 "/>
<path style="fill:none;stroke-width:1.2;stroke-linecap:butt;stroke-linejoin:miter;stroke:rgb(0%,0%,0%);stroke-opacity:1;stroke-miterlimit:10;" d="M 252.082031 199.007812 L 264.75 166.828125 "/>
<path style="fill:none;stroke-width:1.2;stroke-linecap:butt;stroke-linejoin:miter;stroke:rgb(0%,0%,0%);stroke-opacity:1;stroke-miterlimit:10;" d="M 245.777344 192.808594 L 255.910156 167.0625 "/>
<path style="fill:none;stroke-width:1.2;stroke-linecap:butt;stroke-linejoin:miter;stroke:rgb(0%,0%,0%);stroke-opacity:1;stroke-miterlimit:10;" d="M 264.75 166.828125 L 243.214844 139.765625 "/>
<path style="fill:none;stroke-width:1.2;stroke-linecap:butt;stroke-linejoin:miter;stroke:rgb(0%,0%,0%);stroke-opacity:1;stroke-miterlimit:10;" d="M 243.214844 139.765625 L 209.015625 144.882812 "/>
<path style="fill:none;stroke-width:1.2;stroke-linecap:butt;stroke-linejoin:miter;stroke:rgb(0%,0%,0%);stroke-opacity:1;stroke-miterlimit:10;" d="M 241 148.324219 L 213.636719 152.417969 "/>
<path style="fill:none;stroke-width:1.2;stroke-linecap:butt;stroke-linejoin:miter;stroke:rgb(0%,0%,0%);stroke-opacity:1;stroke-miterlimit:10;" d="M 209.015625 144.882812 L 187.480469 117.820312 "/>
<path style="fill:none;stroke-width:1.2;stroke-linecap:butt;stroke-linejoin:miter;stroke:rgb(0%,0%,0%);stroke-opacity:1;stroke-miterlimit:10;" d="M 186.878906 113.796875 L 169.777344 116.355469 "/>
<path style="fill:none;stroke-width:1.2;stroke-linecap:butt;stroke-linejoin:miter;stroke:rgb(100%,0%,0%);stroke-opacity:1;stroke-miterlimit:10;" d="M 169.777344 116.355469 L 152.675781 118.914062 "/>
<path style="fill:none;stroke-width:1.2;stroke-linecap:butt;stroke-linejoin:miter;stroke:rgb(0%,0%,0%);stroke-opacity:1;stroke-miterlimit:10;" d="M 188.082031 121.84375 L 170.980469 124.402344 "/>
<path style="fill:none;stroke-width:1.2;stroke-linecap:butt;stroke-linejoin:miter;stroke:rgb(100%,0%,0%);stroke-opacity:1;stroke-miterlimit:10;" d="M 170.980469 124.402344 L 153.878906 126.960938 "/>
<path style="fill:none;stroke-width:1.2;stroke-linecap:butt;stroke-linejoin:miter;stroke:rgb(0%,0%,0%);stroke-opacity:1;stroke-miterlimit:10;" d="M 187.480469 117.820312 L 193.816406 101.730469 "/>
<path style="fill:none;stroke-width:1.2;stroke-linecap:butt;stroke-linejoin:miter;stroke:rgb(100%,0%,0%);stroke-opacity:1;stroke-miterlimit:10;" d="M 193.816406 101.730469 L 200.148438 85.640625 "/>
<path style=" stroke:none;fill-rule:nonzero;fill:rgb(100%,100%,100%);fill-opacity:1;" d="M 142.277344 114.9375 L 153.277344 114.9375 L 153.277344 130.9375 L 142.277344 130.9375 Z M 142.277344 114.9375 "/>
<g style="fill:rgb(100%,0%,0%);fill-opacity:1;">
  <use xlink:href="#glyph0-1" x="142.277344" y="127.313477"/>
</g>
<path style=" stroke:none;fill-rule:nonzero;fill:rgb(100%,100%,100%);fill-opacity:1;" d="M 190.148438 77.640625 L 211.148438 77.640625 L 211.148438 93.640625 L 190.148438 93.640625 Z M 190.148438 77.640625 "/>
<g style="fill:rgb(100%,0%,0%);fill-opacity:1;">
  <use xlink:href="#glyph0-1" x="190.148438" y="90.016602"/>
  <use xlink:href="#glyph0-2" x="200.638672" y="90.016602"/>
</g>
</g>
</svg>

<svg xmlns="http://www.w3.org/2000/svg" xmlns:xlink="http://www.w3.org/1999/xlink" width="300pt" height="300pt" viewBox="0 0 300 300"><defs><symbol overflow="visible"><path d="M.64 2.297v-11.47h6.5v11.47zm.735-.72h5.047V-8.436H1.375zm0 0"/></symbol><symbol overflow="visible" id="a"><path d="M5.125-8.61c-.938 0-1.684.352-2.234 1.047-.542.688-.812 1.633-.812 2.83 0 1.198.27 2.147.813 2.842.55.687 1.297 1.03 2.235 1.03.926 0 1.66-.343 2.203-1.03.55-.696.828-1.645.828-2.844 0-1.196-.277-2.14-.828-2.829-.543-.695-1.277-1.046-2.203-1.046zm0-1.046c1.32 0 2.38.45 3.172 1.344.8.898 1.203 2.09 1.203 3.578 0 1.5-.402 2.7-1.203 3.593C7.504-.255 6.445.186 5.125.186c-1.336 0-2.402-.44-3.203-1.328C1.13-2.036.734-3.235.734-4.735c0-1.49.395-2.68 1.188-3.579.8-.894 1.867-1.343 3.203-1.343zm0 0"/></symbol><symbol overflow="visible" id="b"><path d="M1.28-9.484h1.282v3.89H7.22v-3.89H8.5V0H7.22v-4.516H2.562V0H1.28zm0 0"/></symbol></defs><g><path fill="#fff" d="M0 0h300v300H0z"/><path d="M90.44 190.914m2.38 1.824l.485-.922m1.898 2.75l.96-1.85m1.42 3.675l1.444-2.773m.934 4.602l1.927-3.7m.457 5.523l2.406-4.625m-.027 6.453l2.886-5.55m-.508 7.375l3.37-6.472m-.992 8.3l3.852-7.398m-1.47 9.227l4.333-8.33m-1.953 10.154l4.813-9.25m-2.434 11.078l5.298-10.176m-3.613 11.465l5.632-10.828" stroke="#000" stroke-miterlimit="10" fill="none"/><path d="M90.44 190.914l-30.948 15.438M85.324 156.71l5.117 34.204M106.406 160.234l-15.965 30.68M59.492 206.352L35.25 181.687" stroke-width="1.2" stroke="#000" stroke-miterlimit="10" fill="none"/><path d="M51.215 151.008l-21.38 27.863 10.83 5.634zm0 0"/><path d="M51.215 151.008l34.11 5.703M51.215 151.008l30.945-15.434M82.16 135.574l24.246 24.66M82.16 135.574l27.063-21.535M82.16 135.574l-18.586-29.168" stroke-width="1.2" stroke="#000" stroke-miterlimit="10" fill="none"/><path d="M106.406 160.234m2.996.078l-.152-1.03m3.152 1.11l-.308-2.064m3.308 2.14l-.465-3.093m3.465 3.172l-.617-4.12m3.613 4.202l-.77-5.157m3.77 5.234l-.925-6.187m3.925 6.265l-1.082-7.22m4.082 7.298l-1.234-8.25m4.23 8.328l-1.386-9.28m4.387 9.36l-1.543-10.313m4.543 10.39l-1.7-11.343m3.817 11.398l-1.81-12.07" stroke="#000" stroke-miterlimit="10" fill="none"/><path d="M140.61 155.117l10.765 13.53" stroke-width="1.2" stroke="#f00" stroke-miterlimit="10" fill="none"/><path d="M151.375 168.648l10.766 13.532" stroke-width="1.2" stroke="#000" stroke-miterlimit="10" fill="none"/><path d="M135.61 147.117h11v16h-11zm0 0" fill="#fff"/><use xlink:href="#a" x="135.609" y="159.493" fill="#f00"/><path d="M158.355 180.688l-6.335 16.09" stroke-width="1.2" stroke="#000" stroke-miterlimit="10" fill="none"/><path d="M152.02 196.777l-6.333 16.09" stroke-width="1.2" stroke="#f00" stroke-miterlimit="10" fill="none"/><path d="M165.926 183.668l-6.332 16.09" stroke-width="1.2" stroke="#000" stroke-miterlimit="10" fill="none"/><path d="M159.594 199.758l-6.336 16.09" stroke-width="1.2" stroke="#f00" stroke-miterlimit="10" fill="none"/><path d="M162.14 182.18l34.204-5.118" stroke-width="1.2" stroke="#000" stroke-miterlimit="10" fill="none"/><path d="M138.473 206.36h11v16h-11zm0 0" fill="#fff"/><use xlink:href="#a" x="138.473" y="218.735" fill="#f00"/><path d="M196.344 177.063l21.535 27.062M204.863 174.703l17.227 21.65M209.016 144.883l-12.672 32.18M217.88 204.125l34.202-5.117M252.082 199.008l12.668-32.18M245.777 192.81l10.133-25.748M264.75 166.828l-21.535-27.062M243.215 139.766l-34.2 5.117M241 148.324l-27.363 4.094M209.016 144.883L187.48 117.82M186.88 113.797l-17.103 2.558" stroke-width="1.2" stroke="#000" stroke-miterlimit="10" fill="none"/><path d="M169.777 116.355l-17.1 2.56" stroke-width="1.2" stroke="#f00" stroke-miterlimit="10" fill="none"/><path d="M188.082 121.844l-17.102 2.558" stroke-width="1.2" stroke="#000" stroke-miterlimit="10" fill="none"/><path d="M170.98 124.402l-17.1 2.56" stroke-width="1.2" stroke="#f00" stroke-miterlimit="10" fill="none"/><path d="M187.48 117.82l6.336-16.09" stroke-width="1.2" stroke="#000" stroke-miterlimit="10" fill="none"/><path d="M193.816 101.73l6.332-16.09" stroke-width="1.2" stroke="#f00" stroke-miterlimit="10" fill="none"/><path d="M142.277 114.938h11v16h-11zm0 0" fill="#fff"/><use xlink:href="#a" x="142.277" y="127.313" fill="#f00"/><path d="M190.148 77.64h21v16h-21zm0 0" fill="#fff"/><g fill="#f00"><use xlink:href="#a" x="190.148" y="90.017"/><use xlink:href="#b" x="200.639" y="90.017"/></g></g></svg>
